upload-off.svg

<svg fill="currentColor" viewBox="0 0 24 24"><path d="M22.11 21.46 2.39 1.73 1.11 3l5.45 5.45L5 10h3.11l.89.89V16h5.11l2 2H5v2h13.11l2.73 2.73zM15 10h4l-7-7-2.9 2.9 5.9 5.9z"/></svg>

<svg  viewBox="0 0 24 24" fill="currentColor"><path  d="M22.11 21.46L2.39 1.73L1.11 3L6.56 8.45L5 10H8.11L9 10.89V16H14.11L16.11 18H5V20H18.11L20.84 22.73L22.11 21.46M15 10H19L12 3L9.1 5.9L15 11.8V10Z"/></svg>
